X:1
T:Title
%%score { ( 1 3 ) | ( 2 4 ) }
L:1/8
Q:1/4=100
M:4/4
K:E
V:1 treble nm="Grand Piano"
V:3 treble 
V:2 bass 
V:4 bass 
V:1
 [GB]3 [GB] [Ge]2 [Ed]2 | [Ec]3 [AB] [GB]2 [EG]2 | [DF]3 [EG] [GB][FA][FA][DF] | [EG]6 z2 | %4
w: Chas.~Edw.~Prior * * *||||
 z4 z2 [DB]2 | e3 [Fd] [Fd]2 [FB]2 | [Ec]3 [EG] [E^A][Ge][Fd][Ec] | [DB]6 z2 | %8
w: ||||
 [GB]3 [FA] [FA]2 [EG]2 | [Cc]3 [^EB] [EB]2 [FA]2 | [Fd]3 [Ac] [B,GB]2 [B,FA]2 | [B,EG]6 z2 | %12
w: ||||
 [DF]3 [EG] [GB][FA] [DF]2 | [CE]4 z4 | B,3 B, DC B,2 | E6 z2 |] %16
w: ||||
V:2
 [E,B,]3 [E,B,] [E,B,]2 [G,B,]2 | [A,C]3 [F,D] [E,E]2 [E,B,]2 | %2
 [B,,B,]3 [B,,B,] [B,,B,][B,,B,][B,,B,][B,,B,] | [E,B,]6 z2 | [B,,B,]3 [B,,F,] [C,F,]2 .[B,,F,]2 | %5
 [F,^A,F]3 [B,,B,] [B,,B,]2 [D,B,]2 | [E,G,]3 [C,C] [F,C][F,^A,][F,A,][F,A,] | [B,,B,]6 z2 | %8
 [E,B,]3 [D,B,] [D,B,]2 [E,B,]2 | [^E,G,]3 [C,C] [C,C]2 [F,C]2 | [B,,B,]3 [B,,B,] B,,B,,C,D, | %11
 E,6 z2 | [B,,B,]2 [B,,B,][B,,B,] [B,,B,][B,,B,] [B,,A,]2 | %13
 [C,G,]2 C,[C,G,C] [A,,A,][A,,A,] [A,,E,A,]2 | z4 A,2 z2 | [E,G,B,]6 z2 |] %16
V:3
 x8 | x8 | x8 | x8 | [DF]3 [DB] [E^A]2 z B, | x8 | x8 | x8 | x8 | x8 | x8 | x8 | x8 | %13
 z2 G,E [CF][CE] C2 | x8 | x8 |] %16
V:4
 x8 | x8 | x8 | x8 | x8 | x8 | x8 | x8 | x8 | x8 | x8 | x8 | x8 | x8 | %14
 [B,,E,G,]3 [B,,E,G,] [B,,D,][C,E,] [D,F,]2 | x8 |] %16

